app/assets/images/icons/active/cross.svg

<?xml version="1.0" encoding="UTF-8" standalone="no"?>
<svg width="32px" height="232px" viewBox="0 0 32 232" version="1.1" xmlns="http://www.w3.org/2000/svg" xmlns:xlink="http://www.w3.org/1999/xlink" xmlns:sketch="http://www.bohemiancoding.com/sketch/ns">
    <title>cross</title>
    <description>Created with Sketch (http://www.bohemiancoding.com/sketch)</description>
    <defs></defs>
    <g id="Functions" stroke="none" stroke-width="1" fill="none" fill-rule="evenodd" sketch:type="MSPage">
        <path d="M19.14208,176.9424 L27.88576,168.19968 L24.68704,165 L15.94144,173.74368 L7.20064,165 L4,168.20064 L12.74272,176.9424 L12.68704,177 L12.74272,177.05664 L4,185.79936 L7.20064,189 L15.94336,180.25728 L24.68704,189 L27.88576,185.79936 L19.14208,177.05664 L19.20064,177 L19.14208,176.9424 Z M19.14208,176.9424" id="cross--red" fill="#F95D5B" sketch:type="MSShapeGroup"></path>
        <path d="M19.14208,136.9424 L27.88576,128.19968 L24.68704,125 L15.94144,133.74368 L7.20064,125 L4,128.20064 L12.74272,136.9424 L12.68704,137 L12.74272,137.05664 L4,145.79936 L7.20064,149 L15.94336,140.25728 L24.68704,149 L27.88576,145.79936 L19.14208,137.05664 L19.20064,137 L19.14208,136.9424 Z M19.14208,136.9424" id="cross--lp-blue" fill="#206FAC" sketch:type="MSShapeGroup"></path>
        <path d="M19.14208,96.9424 L27.88576,88.19968 L24.68704,85 L15.94144,93.74368 L7.20064,85 L4,88.20064 L12.74272,96.9424 L12.68704,97 L12.74272,97.05664 L4,105.79936 L7.20064,109 L15.94336,100.25728 L24.68704,109 L27.88576,105.79936 L19.14208,97.05664 L19.20064,97 L19.14208,96.9424 Z M19.14208,96.9424" id="cross--white" fill="#FFFFFF" sketch:type="MSShapeGroup"></path>
        <path d="M19.14208,56.9424 L27.88576,48.19968 L24.68704,45 L15.94144,53.74368 L7.20064,45 L4,48.20064 L12.74272,56.9424 L12.68704,57 L12.74272,57.05664 L4,65.79936 L7.20064,69 L15.94336,60.25728 L24.68704,69 L27.88576,65.79936 L19.14208,57.05664 L19.20064,57 L19.14208,56.9424 Z M19.14208,56.9424" id="cross--body-grey" fill="#67737B" sketch:type="MSShapeGroup"></path>
        <path d="M19.14208,16.9424 L27.88576,8.19968 L24.68704,5 L15.94144,13.74368 L7.20064,5 L4,8.20064 L12.74272,16.9424 L12.68704,17 L12.74272,17.05664 L4,25.79936 L7.20064,29 L15.94336,20.25728 L24.68704,29 L27.88576,25.79936 L19.14208,17.05664 L19.20064,17 L19.14208,16.9424 Z M19.14208,16.9424" id="cross--title-grey" fill="#3A434E" sketch:type="MSShapeGroup"></path>
    </g>
</svg>

<svg width="32" height="232" viewBox="0 0 32 232" xmlns="http://www.w3.org/2000/svg" xmlns:sketch="http://www.bohemiancoding.com/sketch/ns"><title>cross</title><g sketch:type="MSPage" fill="none"><path d="M19.142 176.942l8.744-8.743-3.199-3.2-8.746 8.744-8.741-8.744-3.201 3.201 8.743 8.742-.056.058.056.057-8.743 8.743 3.201 3.201 8.743-8.743 8.744 8.743 3.199-3.201-8.744-8.743.059-.057-.059-.058zm0 0" fill="#F95D5B" sketch:type="MSShapeGroup"/><path d="M19.142 136.942l8.744-8.743-3.199-3.2-8.746 8.744-8.741-8.744-3.201 3.201 8.743 8.742-.056.058.056.057-8.743 8.743 3.201 3.201 8.743-8.743 8.744 8.743 3.199-3.201-8.744-8.743.059-.057-.059-.058zm0 0" fill="#206FAC" sketch:type="MSShapeGroup"/><path d="M19.142 96.942l8.744-8.743-3.199-3.2-8.746 8.744-8.741-8.744-3.201 3.201 8.743 8.742-.056.058.056.057-8.743 8.743 3.201 3.201 8.743-8.743 8.744 8.743 3.199-3.201-8.744-8.743.059-.057-.059-.058zm0 0" fill="#fff" sketch:type="MSShapeGroup"/><path d="M19.142 56.942l8.744-8.743-3.199-3.2-8.746 8.744-8.741-8.744-3.201 3.201 8.743 8.742-.056.058.056.057-8.743 8.743 3.201 3.201 8.743-8.743 8.744 8.743 3.199-3.201-8.744-8.743.059-.057-.059-.058zm0 0" fill="#67737B" sketch:type="MSShapeGroup"/><path d="M19.142 16.942l8.744-8.743-3.199-3.2-8.746 8.744-8.741-8.744-3.201 3.201 8.743 8.742-.056.058.056.057-8.743 8.743 3.201 3.201 8.743-8.743 8.744 8.743 3.199-3.201-8.744-8.743.059-.057-.059-.058zm0 0" fill="#3A434E" sketch:type="MSShapeGroup"/></g></svg>
